icons/pinterest-fill.svg

<svg viewBox="0 0 24 24" fill="currentColor" xmlns="http://www.w3.org/2000/svg"><path d="M13.3717 2.09442C8.42512 1.41268 3.73383 4.48505 2.38064 9.29256C1.02745 14.1001 3.42711 19.1692 8.00271 21.1689C7.94264 20.4008 7.99735 19.628 8.16502 18.8761C8.34964 18.0374 9.46121 13.4132 9.46121 13.4132C9.23971 12.9173 9.12893 12.379 9.13659 11.8359C9.13659 10.3509 9.99353 9.24295 11.0597 9.24295C11.4472 9.23718 11.8181 9.40028 12.0758 9.68981C12.3335 9.97934 12.4526 10.3667 12.402 10.751C12.402 11.6512 11.8236 13.0131 11.5228 14.2903C11.4014 14.7656 11.5131 15.2703 11.8237 15.65C12.1343 16.0296 12.6069 16.2389 13.0967 16.2139C14.9944 16.2139 16.2675 13.7825 16.2675 10.9126C16.2675 8.71205 14.8098 7.0655 12.1243 7.0655C10.826 7.01531 9.56388 7.4996 8.63223 8.40543C7.70057 9.31126 7.18084 10.5595 7.19423 11.859C7.16563 12.5722 7.39566 13.2717 7.84194 13.8287C8.01361 13.9564 8.07985 14.1825 8.00425 14.3827C7.9581 14.5673 7.84194 15.0059 7.79578 15.1675C7.77632 15.278 7.70559 15.3728 7.60516 15.4228C7.50473 15.4729 7.38651 15.4724 7.28654 15.4214C5.9019 14.8674 5.24957 13.3439 5.24957 11.6051C5.24957 8.75822 7.63424 5.3497 12.4036 5.3497C16.1998 5.3497 18.723 8.1273 18.723 11.0972C18.723 15.0059 16.5468 17.9451 13.3298 17.9451C12.3526 17.9761 11.4273 17.5061 10.8759 16.6986C10.8759 16.6986 10.2974 19.0146 10.1835 19.4531C9.95101 20.2099 9.60779 20.9281 9.16505 21.5844C10.0877 21.8643 11.0471 22.0044 12.0113 22C14.6636 22.0017 17.2078 20.9484 19.0829 19.072C20.958 17.1957 22.0099 14.6504 22.0069 11.9975C22.004 7.00306 18.3183 2.77616 13.3717 2.09442Z"/></svg>

<svg xmlns="http://www.w3.org/2000/svg" viewBox="0 0 24 24">
    <g>
        <path fill="none" d="M0 0h24v24H0z"/>
        <path d="M13.37 2.094A10.003 10.003 0 0 0 8.002 21.17a7.757 7.757 0 0 1 .163-2.293c.185-.839 1.296-5.463 1.296-5.463a3.739 3.739 0 0 1-.324-1.577c0-1.485.857-2.593 1.923-2.593a1.334 1.334 0 0 1 1.342 1.508c0 .9-.578 2.262-.88 3.54a1.544 1.544 0 0 0 1.575 1.923c1.898 0 3.17-2.431 3.17-5.301 0-2.2-1.457-3.848-4.143-3.848a4.746 4.746 0 0 0-4.93 4.794 2.96 2.96 0 0 0 .648 1.97.48.48 0 0 1 .162.554c-.046.184-.162.623-.208.784a.354.354 0 0 1-.51.254c-1.384-.554-2.036-2.077-2.036-3.816 0-2.847 2.384-6.255 7.154-6.255 3.796 0 6.32 2.777 6.32 5.747 0 3.909-2.177 6.848-5.394 6.848a2.861 2.861 0 0 1-2.454-1.246s-.578 2.316-.692 2.754a8.026 8.026 0 0 1-1.019 2.131c.923.28 1.882.42 2.846.416a9.988 9.988 0 0 0 9.996-10.003 10.002 10.002 0 0 0-8.635-9.903z"/>
    </g>
</svg>
